src/Assets/icons/skrill.svg

<svg class="svg-icon" viewBox="0 -9 58 58" fill="currentColor" xmlns="http://www.w3.org/2000/svg">
<rect x="0.5" y="0.5" width="57" height="39" rx="3.5" fill="white" stroke="#F3F3F3"/>
<path fill-rule="evenodd" clip-rule="evenodd" d="M48.6494 12.7211V27.2361H52.6426V12.0115L48.6494 12.7211" fill="#862165"/>
<path fill-rule="evenodd" clip-rule="evenodd" d="M42.8205 12.7211L46.8111 12.0115V27.2361H42.8205V12.7211" fill="#862165"/>
<path fill-rule="evenodd" clip-rule="evenodd" d="M37.136 27.2361V16.1005H41.1286V27.2361H37.136" fill="#862165"/>
<path fill-rule="evenodd" clip-rule="evenodd" d="M37.1636 13.0775C37.1636 11.9975 38.0453 11.1213 39.1311 11.1213C40.2187 11.1213 41.0998 11.9975 41.0998 13.0775C41.0998 14.1583 40.2187 15.0325 39.1311 15.0325C38.0453 15.0325 37.1636 14.1583 37.1636 13.0775" fill="#862165"/>
<path fill-rule="evenodd" clip-rule="evenodd" d="M34.884 15.9372C31.1952 16.0554 29.3211 17.7009 29.3211 20.9717V27.2361H33.3469V22.1267C33.3469 20.1692 33.6052 19.33 35.9435 19.2499V15.9951C35.5503 15.9118 34.884 15.9372 34.884 15.9372V15.9372" fill="#862165"/>
<path fill-rule="evenodd" clip-rule="evenodd" d="M24.0524 16.0878C23.9641 16.3102 23.326 18.105 21.7786 19.9647V12.0115L17.6582 12.8215V27.2361H21.7786V22.7798C22.9717 24.5588 23.5613 27.2361 23.5613 27.2361H28.4957C28.0078 25.2195 25.8728 21.5022 25.8728 21.5022C27.7897 19.0866 28.6306 16.5141 28.7649 16.0878H24.0524" fill="#862165"/>
<path fill-rule="evenodd" clip-rule="evenodd" d="M10.7487 17.6755C10.2442 17.6431 9.0753 17.5675 9.0753 16.5224C9.0753 15.2612 10.757 15.2612 11.3881 15.2612C12.4981 15.2612 13.9342 15.5865 14.9611 15.8921C14.9611 15.8921 15.5328 16.0929 16.0194 16.2975L16.0648 16.3102V12.8558L16.004 12.8374C14.7917 12.4162 13.3843 12.0115 10.7736 12.0115C6.27274 12.0115 4.67804 14.6157 4.67804 16.8489C4.67804 18.1349 5.23305 21.1642 10.3861 21.513C10.8241 21.5397 11.984 21.6064 11.984 22.6864C11.984 23.5785 11.0345 24.1033 9.43785 24.1033C7.68841 24.1033 5.99012 23.6611 4.95938 23.2398V26.7965C6.50293 27.1999 8.24342 27.3994 10.2832 27.3994C14.6823 27.3994 16.6543 24.9349 16.6543 22.4914C16.6543 19.722 14.449 17.922 10.7487 17.6755V17.6755" fill="#862165"/>
</svg>

<svg class="svg-icon" viewBox="0 -9 58 58" fill="none" xmlns="http://www.w3.org/2000/svg"><path fill-rule="evenodd" clip-rule="evenodd" d="M48.65 12.721v14.515h3.993V12.011l-3.994.71m-5.829 0 3.991-.71v15.225h-3.99V12.721m-5.685 14.515V16.1h3.993v11.136h-3.993m.028-14.158c0-1.08.881-1.957 1.967-1.957 1.088 0 1.969.877 1.969 1.957s-.881 1.955-1.969 1.955a1.961 1.961 0 0 1-1.967-1.955m-2.28 2.859c-3.689.118-5.563 1.764-5.563 5.035v6.264h4.026v-5.11c0-1.957.258-2.796 2.596-2.876v-3.255c-.393-.083-1.059-.058-1.059-.058m-10.832.151c-.088.222-.726 2.017-2.273 3.877V12.01l-4.12.81v14.415h4.12V22.78c1.193 1.779 1.782 4.456 1.782 4.456h4.935c-.488-2.017-2.623-5.734-2.623-5.734 1.917-2.415 2.758-4.988 2.892-5.414h-4.713m-13.303 1.587c-.505-.032-1.674-.108-1.674-1.153 0-1.26 1.682-1.26 2.313-1.26 1.11 0 2.546.324 3.573.63 0 0 .572.2 1.058.405l.046.013v-3.454l-.061-.019c-1.212-.42-2.62-.825-5.23-.825-4.501 0-6.096 2.604-6.096 4.837 0 1.286.555 4.315 5.708 4.664.438.027 1.598.093 1.598 1.173 0 .892-.95 1.417-2.546 1.417-1.75 0-3.448-.442-4.479-.863v3.557c1.544.403 3.284.602 5.324.602 4.4 0 6.371-2.464 6.371-4.908 0-2.769-2.205-4.569-5.905-4.816" fill="currentColor"/></svg>
